src/lib/packages/icons/src/assets/filled/box-plus.svg

<svg width="24" height="24" viewBox="0 0 24 24" fill="none" xmlns="http://www.w3.org/2000/svg">
<path d="M9.47998 11.15C9.72998 11.26 9.99 11.33 10.25 11.39V20.91C10.09 20.87 9.93003 20.81 9.78003 20.74L3.78003 18.07C2.70003 17.59 2 16.52 2 15.33V8.67C2 8.4 2.03999 8.12999 2.10999 7.87999L9.47998 11.15ZM19.13 6.55999C18.87 6.29999 18.57 6.07998 18.22 5.92998L12.22 3.26C11.44 2.91 10.56 2.91 9.78003 3.26L3.78003 5.92998C3.43003 6.07998 3.13 6.29999 2.87 6.55999L10.08 9.76998C10.66 10.03 11.33 10.03 11.92 9.76998L19.13 6.55999ZM12.559 16.176C12.927 13.595 15.1889 11.595 17.7939 11.504C18.4299 11.482 19.036 11.563 19.604 11.739C19.801 11.8 20 11.666 20 11.46V8.67C20 8.4 19.96 8.12999 19.89 7.87999L12.52 11.15C12.27 11.25 12.01 11.33 11.75 11.39V20.91C11.769 20.922 11.769 20.922 11.788 20.934L13.192 20.303C13.359 20.228 13.414 20.025 13.317 19.869C12.663 18.817 12.363 17.548 12.559 16.176ZM22 17C22 19.21 20.21 21 18 21C15.79 21 14 19.21 14 17C14 14.79 15.79 13 18 13C20.21 13 22 14.79 22 17ZM19.75 17C19.75 16.72 19.53 16.5 19.25 16.5H18.5V15.75C18.5 15.47 18.28 15.25 18 15.25C17.72 15.25 17.5 15.47 17.5 15.75V16.5H16.75C16.47 16.5 16.25 16.72 16.25 17C16.25 17.27 16.47 17.5 16.75 17.5H17.5V18.25C17.5 18.52 17.72 18.75 18 18.75C18.28 18.75 18.5 18.52 18.5 18.25V17.5H19.25C19.53 17.5 19.75 17.27 19.75 17Z" fill="currentColor"/>
</svg>

<svg xmlns="http://www.w3.org/2000/svg" width="24" height="24" fill="none"><path fill="currentColor" d="M9.48 11.15c.25.11.51.18.77.24v9.52c-.16-.04-.32-.1-.47-.17l-6-2.67A2.996 2.996 0 0 1 2 15.33V8.67c0-.27.04-.54.11-.79l7.37 3.27Zm9.65-4.59c-.26-.26-.56-.48-.91-.63l-6-2.67c-.78-.35-1.66-.35-2.44 0l-6 2.67c-.35.15-.65.37-.91.63l7.21 3.21c.58.26 1.25.26 1.84 0l7.21-3.21Zm-6.571 9.616c.368-2.581 2.63-4.581 5.235-4.672a5.451 5.451 0 0 1 1.81.235c.197.061.396-.073.396-.279V8.67c0-.27-.04-.54-.11-.79l-7.37 3.27c-.25.1-.51.18-.77.24v9.52l.038.024 1.404-.631a.298.298 0 0 0 .125-.434 5.446 5.446 0 0 1-.758-3.693ZM22 17c0 2.21-1.79 4-4 4s-4-1.79-4-4 1.79-4 4-4 4 1.79 4 4Zm-2.25 0c0-.28-.22-.5-.5-.5h-.75v-.75c0-.28-.22-.5-.5-.5s-.5.22-.5.5v.75h-.75c-.28 0-.5.22-.5.5 0 .27.22.5.5.5h.75v.75c0 .27.22.5.5.5s.5-.23.5-.5v-.75h.75c.28 0 .5-.23.5-.5Z"/></svg>
